COLOR/action 16/16/xfburn-burn-cd.svg

<svg height="16" width="16" xmlns="http://www.w3.org/2000/svg"><g stroke-width="1.499998" transform="translate(-.000003)"><path d="m7.9999933.00002023c-4.40939 0-7.99998999 3.59058997-7.99998999 7.99998977 0 4.40939 3.59059999 7.99999 7.99998999 7.99999 4.4093997 0 7.9999897-3.5906 7.9999897-7.99999 0-4.4093998-3.59059-7.99998977-7.9999897-7.99998977z" fill="#da1636" stroke-dashoffset=".8"/><path d="m.000014.00001h15.999983v15.999983h-15.999983z" fill="none" stroke-dasharray="1.499998 1.499998" stroke-dashoffset=".6"/></g><g stroke-width="1.499998" transform="translate(-.000003)"><path d="m8 0c-4.40939 0-8 3.5906002-8 8 0 .084376.00910864.166243.01171875.25.13379101-4.293291 3.66326725-7.75 7.98828125-7.75 4.325024 0 7.854491 3.456709 7.988281 7.75.00261-.083757.011719-.165624.011719-.25 0-4.4093998-3.5906-8-8-8z" fill="#fff" opacity=".3" stroke-dashoffset=".8" transform="translate(.000003)"/><path d="m.000014.00001h15.999983v15.999983h-15.999983z" fill="none" stroke-dasharray="1.499998 1.499998" stroke-dashoffset=".6"/><path d="m8.0000032 16c4.4093898 0 7.9999998-3.5906 7.9999998-7.9999998 0-.08438-.0091-.1662429-.01172-.25-.13379 4.2932908-3.663266 7.7499998-7.9882798 7.7499998-4.325024 0-7.85449105-3.456709-7.98828105-7.7499998-.00261.08376-.011719.1656241-.011719.25 0 4.4093998 3.59060005 7.9999998 8.00000005 7.9999998z" opacity=".2" stroke-dashoffset=".8"/></g><circle cx="7.999997" cy="8.000004" fill="none" r="5" stroke="#fff" stroke-width="1.011128"/></svg>

<?xml version="1.0" encoding="UTF-8" standalone="no"?>
<svg
   xmlns:dc="http://purl.org/dc/elements/1.1/"
   xmlns:cc="http://creativecommons.org/ns#"
   xmlns:rdf="http://www.w3.org/1999/02/22-rdf-syntax-ns#"
   xmlns:svg="http://www.w3.org/2000/svg"
   xmlns="http://www.w3.org/2000/svg"
   xmlns:sodipodi="http://sodipodi.sourceforge.net/DTD/sodipodi-0.dtd"
   xmlns:inkscape="http://www.inkscape.org/namespaces/inkscape"
   height="16"
   width="16"
   version="1.1"
   id="svg4"
   sodipodi:docname="xfburn-burn-cd.svg"
   inkscape:version="0.92.4 (5da689c313, 2019-01-14)">
  <metadata
     id="metadata10">
    <rdf:RDF>
      <cc:Work
         rdf:about="">
        <dc:format>image/svg+xml</dc:format>
        <dc:type
           rdf:resource="http://purl.org/dc/dcmitype/StillImage" />
      </cc:Work>
    </rdf:RDF>
  </metadata>
  <defs
     id="defs8" />
  <sodipodi:namedview
     pagecolor="#ffffff"
     bordercolor="#808080"
     borderopacity="1"
     objecttolerance="10"
     gridtolerance="10"
     guidetolerance="10"
     inkscape:pageopacity="0"
     inkscape:pageshadow="2"
     inkscape:window-width="1920"
     inkscape:window-height="1016"
     id="namedview6"
     showgrid="false"
     inkscape:zoom="14.75"
     inkscape:cx="15.148628"
     inkscape:cy="8"
     inkscape:window-x="0"
     inkscape:window-y="27"
     inkscape:window-maximized="1"
     inkscape:current-layer="svg4" />
  <g
     id="g829"
     style="stroke-width:1.49999797"
     transform="translate(-3.15e-6)">
    <path
       id="path817"
       d="M 7.9999933,2.023e-5 C 3.5906033,2.023e-5 3.31e-6,3.5906102 3.31e-6,8.00001 3.31e-6,12.4094 3.5906033,16 7.9999933,16 12.409393,16 15.999983,12.4094 15.999983,8.00001 15.999983,3.5906102 12.409393,2.023e-5 7.9999933,2.023e-5 Z"
       inkscape:connector-curvature="0"
       style="fill:#da1636;fill-opacity:1;stroke-dashoffset:0.80000001" />
    <g
       id="g827"
       style="fill:none">
      <path
         id="path819"
         d="M 1.4e-5,1e-5 H 15.999997 V 15.999993 H 1.4e-5 Z"
         inkscape:connector-curvature="0"
         style="stroke-dasharray:1.499998, 1.499998;stroke-dashoffset:0.60000002" />
    </g>
  </g>
  <g
     transform="translate(-3.15e-6)"
     style="stroke-width:1.49999797"
     id="g852">
    <path
       style="opacity:0.3;fill:#ffffff;fill-opacity:1;stroke-dashoffset:0.80000001"
       d="M 8,0 C 3.59061,0 0,3.5906002 0,8 0,8.084376 0.00910864,8.166243 0.01171875,8.25 0.14550976,3.956709 3.674986,0.5 8,0.5 c 4.325024,0 7.854491,3.456709 7.988281,7.75 C 15.990891,8.166243 16,8.084376 16,8 16,3.5906002 12.4094,0 8,0 Z"
       transform="translate(3.31e-6)"
       id="path846"
       inkscape:connector-curvature="0" />
    <g
       style="fill:none"
       id="g850">
      <path
         style="stroke-dasharray:1.499998, 1.499998;stroke-dashoffset:0.60000002"
         inkscape:connector-curvature="0"
         d="M 1.4e-5,1e-5 H 15.999997 V 15.999993 H 1.4e-5 Z"
         id="path848" />
    </g>
    <path
       id="path863"
       d="m 8.0000032,16 c 4.4093898,0 7.9999998,-3.5906 7.9999998,-7.9999998 0,-0.08438 -0.0091,-0.1662429 -0.01172,-0.25 C 15.854493,12.043291 12.325017,15.5 8.0000032,15.5 c -4.325024,0 -7.85449105,-3.456709 -7.98828105,-7.7499998 -0.00261,0.08376 -0.011719,0.1656241 -0.011719,0.25 C 3.15e-6,12.4094 3.5906032,16 8.0000032,16 Z"
       style="opacity:0.2;fill:#000000;fill-opacity:1;stroke-dashoffset:0.80000001"
       inkscape:connector-curvature="0" />
  </g>
  <circle
     style="opacity:1;fill:none;fill-opacity:1;stroke:#ffffff;stroke-width:1.01112819;stroke-opacity:1"
     id="path865"
     cx="7.9999967"
     cy="8.0000038"
     r="5" />
</svg>
